_includes/icons/color-heart-health.svg

<svg fill="#666" height="50" viewBox="0 0 48 48" width="50" xmlns="http://www.w3.org/2000/svg"><path d="m42.5 12-3.601562-3.5c-1.597657-.898437-3.398438-1.5-5.398438-1.5-4.199219 0-7.800781 2.5-9.5 6-1.699219-3.601562-5.300781-6-9.5-6-5.800781 0-10.5 4.699219-10.5 10.5 0 3 1.199219 5.601563 3.199219 7.5l16.800781 17 17.101563-17.300781c1.796875-1.800781 2.898437-4.398438 2.898437-7.199219 0-2-.601562-3.898437-1.5-5.5z" fill="#ff3d00"/><path d="m38.898438 8.5-14.898438 15-7.199219-7.199219c-1-1-2.601562-1-3.5 0-1 1-1 2.597657 0 3.5l10.699219 10.699219 18.5-18.5c-.898437-1.398437-2.101562-2.601562-3.601562-3.5z" fill="#fff"/></svg>

<svg xmlns="http://www.w3.org/2000/svg" viewBox="0 0 48 48" width="50" height="50" fill="#666"><path d="M 42.5 12 L 38.898438 8.5 C 37.300781 7.601563 35.5 7 33.5 7 C 29.300781 7 25.699219 9.5 24 13 C 22.300781 9.398438 18.699219 7 14.5 7 C 8.699219 7 4 11.699219 4 17.5 C 4 20.5 5.199219 23.101563 7.199219 25 L 24 42 L 41.101563 24.699219 C 42.898438 22.898438 44 20.300781 44 17.5 C 44 15.5 43.398438 13.601563 42.5 12 Z" fill="#ff3d00"/><path d="M 38.898438 8.5 L 24 23.5 L 16.800781 16.300781 C 15.800781 15.300781 14.199219 15.300781 13.300781 16.300781 C 12.300781 17.300781 12.300781 18.898438 13.300781 19.800781 L 24 30.5 L 42.5 12 C 41.601563 10.601563 40.398438 9.398438 38.898438 8.5 Z" fill="#fff"/></svg>
